assets/images/youtube.svg

<svg width="24" height="24" viewBox="0 0 24 24" fill="none" xmlns="http://www.w3.org/2000/svg">
<path d="M12 4C8.78 4 4.60066 4.80679 4.60066 4.80679L4.59014 4.81881C3.12359 5.05336 2 6.31356 2 7.84615V12.4615V12.463V17.0769V17.0784C2.00143 17.8104 2.26375 18.5178 2.73984 19.0738C3.21594 19.6297 3.87464 19.9978 4.59766 20.1118L4.60066 20.1163C4.60066 20.1163 8.78 20.9246 12 20.9246C15.22 20.9246 19.3993 20.1163 19.3993 20.1163L19.4008 20.1148C20.1246 20.001 20.7841 19.6327 21.2606 19.0761C21.737 18.5195 21.9992 17.8111 22 17.0784V17.0769V12.463V12.4615V7.84615C21.9989 7.11394 21.7368 6.40612 21.2606 5.84985C20.7845 5.29359 20.1256 4.92535 19.4023 4.8113L19.3993 4.80679C19.3993 4.80679 15.22 4 12 4ZM9.69231 8.92188L15.8462 12.4615L9.69231 16.0012V8.92188Z" fill="white"/>
</svg>

<svg width="24" height="24" fill="none" xmlns="http://www.w3.org/2000/svg"><path d="M12 4c-3.22 0-7.4.807-7.4.807l-.01.012A3.07 3.07 0 002 7.846v9.232a3.077 3.077 0 002.598 3.034l.003.004s4.179.809 7.399.809c3.22 0 7.4-.809 7.4-.809v-.001a3.077 3.077 0 002.6-3.037V7.846a3.077 3.077 0 00-2.598-3.035l-.003-.004S15.22 4 12 4zM9.692 8.922l6.154 3.54-6.154 3.54v-7.08z" fill="#fff"/></svg>
